tgui/packages/tgfont/icons/t-screwdriver.svg

<?xml version="1.0" encoding="UTF-8" standalone="no"?>
<!-- Created with Inkscape (http://www.inkscape.org/) -->

<svg
   width="180"
   height="180"
   viewBox="0 0 180 180"
   version="1.1"
   id="svg1"
   xml:space="preserve"
   inkscape:version="1.3 (0e150ed6c4, 2023-07-21)"
   sodipodi:docname="t-screwdriver.svg"
   xmlns:inkscape="http://www.inkscape.org/namespaces/inkscape"
   xmlns:sodipodi="http://sodipodi.sourceforge.net/DTD/sodipodi-0.dtd"
   xmlns="http://www.w3.org/2000/svg"
   xmlns:svg="http://www.w3.org/2000/svg"><sodipodi:namedview
     id="namedview1"
     pagecolor="#ffffff"
     bordercolor="#000000"
     borderopacity="0.25"
     inkscape:showpageshadow="2"
     inkscape:pageopacity="0.0"
     inkscape:pagecheckerboard="true"
     inkscape:deskcolor="#d1d1d1"
     inkscape:document-units="px"
     inkscape:zoom="8.7203071"
     inkscape:cx="96.212207"
     inkscape:cy="105.55821"
     inkscape:window-width="3840"
     inkscape:window-height="2294"
     inkscape:window-x="-11"
     inkscape:window-y="-11"
     inkscape:window-maximized="1"
     inkscape:current-layer="layer1"
     inkscape:lockguides="false" /><defs
     id="defs1" /><g
     inkscape:label="Layer 1"
     inkscape:groupmode="layer"
     id="layer1"><path
       id="path9384"
       style="fill:#ffffff"
       d="M 84.515625 72.246094 L 27.751953 72.589844 L 22.591797 77.40625 L 22.591797 94.607422 L 28.439453 100.11133 L 84.171875 100.11133 L 95.523438 94.607422 L 95.523438 77.40625 L 84.515625 72.246094 z M 97.587891 72.246094 L 95.523438 77.060547 L 95.869141 95.294922 L 97.587891 100.11133 L 104.8125 100.11133 L 106.87695 94.951172 L 106.87695 88.757812 L 151.94336 88.757812 L 162.95312 88.070312 L 162.95312 84.285156 L 151.94336 83.597656 L 106.87695 83.597656 L 106.87695 77.40625 L 104.8125 72.246094 L 97.587891 72.246094 z " /></g></svg>

<svg xmlns="http://www.w3.org/2000/svg" xml:space="preserve" width="180" height="180"><path d="m84.516 72.246-56.764.344-5.16 4.816v17.201l5.847 5.504h55.733l11.351-5.504v-17.2zm13.072 0-2.065 4.815.346 18.234 1.719 4.816h7.225l2.064-5.16v-6.193h45.066l11.01-.688v-3.785l-11.01-.687h-45.066v-6.192l-2.064-5.16z" style="fill:#fff"/></svg>
